public/img/events/hircine.svg

<svg width="200" height="200" viewBox="0 0 200 200" fill="none" xmlns="http://www.w3.org/2000/svg">
<g clip-path="url(#clip0_501_30257)">
<path d="M79.6491 59.3418C85.289 54.2315 85.2686 46.2735 84.58 39.2824C84.1602 35.0414 83.5164 30.7273 84.258 26.4863C85.0404 22.0097 87.4692 18.1425 89.9346 14.4052C92.6527 10.2861 95.5215 6.12632 96.7237 1.27193C97.0375 0.00450735 95.0733 -0.539835 94.7595 0.73165C92.6201 9.38018 85.0975 15.4532 82.7258 24.0124C80.5497 31.8729 83.4634 39.8877 82.7625 47.8416C82.4283 51.652 81.0958 55.2917 78.2065 57.9078C77.2367 58.7853 78.6792 60.2193 79.6491 59.3418Z" fill="black"/>
<path d="M96.655 198.076C92.9385 195.634 90.2164 192.047 88.3826 188.038C86.3736 183.651 85.5708 178.796 84.821 174.068C83.2154 163.981 82.6286 153.712 80.1795 143.768C78.961 138.808 77.2495 133.953 74.8493 129.432C74.2951 128.384 73.3537 127.478 72.6447 126.523C71.9234 125.557 71.2306 124.569 70.5704 123.558C69.2705 121.58 68.0806 119.524 67.017 117.408C62.6811 108.792 60.4683 99.1438 60.7251 89.504C60.7903 87.0098 60.9899 84.5075 61.4423 82.0498C61.9231 79.4418 62.6159 76.8257 62.6118 74.1568C62.6078 72.9097 62.4447 71.6301 62.0454 70.444C61.8294 69.8021 61.6134 69.3756 61.1203 68.9165C60.6721 68.4981 60.2401 68.0675 59.8245 67.6207C58.3126 65.9917 56.9882 64.0987 56.3321 61.9579C55.9898 60.8448 55.8594 59.7196 55.9205 58.5578C55.672 58.8828 55.4234 59.2118 55.1707 59.5368C59.0828 58.1069 63.0886 60.1705 66.7847 61.3404C68.0357 61.7385 68.5737 59.7765 67.3267 59.3824C63.2557 58.0947 58.932 56.0067 54.6288 57.5788C54.1805 57.7413 53.9075 58.0785 53.8789 58.5578C53.7485 60.9627 54.4413 63.3066 55.6271 65.3824C56.2058 66.3939 56.8986 67.3363 57.6484 68.23C58.0274 68.6769 58.4226 69.1115 58.8302 69.5299C59.1154 69.8224 59.7878 70.3465 59.8978 70.5008C60.2198 70.9355 60.3216 71.8048 60.4194 72.3248C60.5376 72.9707 60.5702 73.6288 60.5661 74.2828C60.558 75.5949 60.3665 76.8907 60.126 78.1785C59.637 80.8068 59.1032 83.3985 58.875 86.0714C58.0314 95.8696 59.7389 105.806 63.5898 114.844C65.5092 119.345 67.9583 123.619 70.8842 127.547C71.5933 128.498 72.5306 129.412 73.0888 130.456C73.7001 131.597 74.2584 132.767 74.78 133.953C75.8191 136.313 76.6708 138.759 77.3881 141.233C80.2895 151.206 80.97 161.629 82.4371 171.862C83.7737 181.169 85.4934 191.202 92.9222 197.767C93.7699 198.519 94.6786 199.201 95.624 199.823C96.7243 200.55 97.7471 198.791 96.655 198.076Z" fill="black"/>
<path d="M79.971 72.926C76.1119 69.0506 72.5218 64.899 68.842 60.853C65.2926 56.9532 61.621 53.1266 58.3202 49.0115C55.4513 45.4327 52.9736 41.5248 51.5514 37.1457C50.2637 33.185 49.7462 28.9887 50.1578 24.8371C50.5979 20.3808 52.2483 15.9895 55.1579 12.5447C54.677 12.5447 54.1962 12.5447 53.7153 12.5447C59.4938 18.9752 64.8077 25.8485 69.0702 33.38C73.4142 41.0495 76.5887 49.3974 77.8927 58.1313C78.6303 63.0588 78.7078 68.096 78.0802 73.0397C78.0109 73.5841 78.5977 74.0553 79.099 74.0553C79.7061 74.0553 80.0485 73.5881 80.1177 73.0397C81.2628 64.0053 79.9792 54.7718 77.0736 46.1761C74.2252 37.7509 69.8282 29.9189 64.6161 22.7287C61.6821 18.6868 58.4995 14.8277 55.162 11.1107C54.8156 10.7248 54.0617 10.7085 53.7194 11.1107C47.9817 17.9109 46.857 27.3638 49.0331 35.7848C50.2067 40.3223 52.3868 44.4537 55.1579 48.2194C58.3283 52.5254 62.0448 56.4048 65.639 60.3574C67.8069 62.7419 69.9749 65.1224 72.1428 67.5069C74.2455 69.8184 76.3238 72.1501 78.5285 74.364C79.4535 75.2902 80.8961 73.8562 79.971 72.926Z" fill="black"/>
<path d="M68.4961 85.1168C70.2158 86.6808 71.6054 88.6144 72.4408 90.7877C73.3454 93.1398 73.6266 95.6746 74.6291 97.9982C76.5118 102.361 81.0229 104.847 85.5259 105.696C88.5985 106.277 91.7322 106.261 94.8455 106.224C96.1577 106.208 96.1577 104.177 94.8455 104.193C90.0003 104.25 84.8168 104.319 80.5461 101.691C78.7449 100.582 77.2412 99.0138 76.4221 97.0517C75.5052 94.8622 75.2567 92.4614 74.405 90.2474C73.4433 87.7451 71.9232 85.4865 69.9346 83.6788C68.9688 82.8013 67.5222 84.2353 68.4961 85.1168Z" fill="black"/>
<path d="M92.8561 195.403C92.742 192.726 92.632 190.049 92.5179 187.372C92.4934 186.823 92.0655 186.356 91.4991 186.356C90.9653 186.356 90.4559 186.819 90.4803 187.372C90.5944 190.049 90.7045 192.726 90.8186 195.403C90.843 195.951 91.2709 196.418 91.8373 196.418C92.3712 196.418 92.8806 195.951 92.8561 195.403Z" fill="black"/>
<path d="M92.5955 188.302C92.5955 191.081 92.5955 193.863 92.5955 196.642C92.5955 197.95 94.633 197.95 94.633 196.642C94.633 193.863 94.633 191.081 94.633 188.302C94.633 186.994 92.5955 186.99 92.5955 188.302Z" fill="black"/>
<path d="M96.0757 183.862C93.8955 182.708 92.1228 180.945 90.9125 178.805C90.2972 177.716 89.8489 176.554 89.5678 175.335C89.4333 174.763 89.3436 174.182 89.2988 173.597C89.2784 173.296 89.2621 172.991 89.2662 172.691C89.2662 172.683 89.2662 172.402 89.2907 172.415C89.2744 172.406 89.148 172.618 89.144 172.61C89.1562 172.634 89.2336 172.622 89.2295 172.618C89.3436 172.687 89.7348 172.618 89.8775 172.622C90.1016 172.626 90.3257 172.638 90.5499 172.65C90.9859 172.675 91.4219 172.711 91.8539 172.772C92.7626 172.894 93.6632 173.097 94.5475 173.349C95.8108 173.71 96.3487 171.748 95.0895 171.391C93.2476 170.863 91.316 170.578 89.3966 170.591C88.4797 170.595 87.6077 170.916 87.3265 171.878C87.1146 172.601 87.2327 173.467 87.3183 174.202C87.681 177.261 88.9769 180.125 91.0103 182.44C92.1432 183.732 93.5247 184.821 95.0447 185.625C96.202 186.226 97.233 184.475 96.0757 183.862Z" fill="black"/>
<path d="M53.231 44.1977C57.9703 42.2519 63.7406 43.8484 66.6461 48.1016C69.7187 52.5985 69.9347 58.3587 72.4286 63.14C73.1418 64.509 74.0994 65.6911 74.9959 66.9382C75.8598 68.1406 76.6667 69.4203 76.5282 70.9558C76.4793 71.5042 77.0335 71.9713 77.5469 71.9713C78.1378 71.9713 78.5168 71.5042 78.5657 70.9558C78.8509 67.8279 76.2959 65.5977 74.784 63.1644C73.2925 60.7636 72.5468 58.0134 71.7725 55.3242C70.9861 52.5985 70.167 49.7955 68.6144 47.3866C67.0332 44.933 64.7553 43.1172 62.0046 42.1219C59.0379 41.0495 55.623 41.0332 52.693 42.2397C52.1837 42.4469 51.821 42.9141 51.9799 43.4909C52.1103 43.9662 52.7216 44.409 53.231 44.1977Z" fill="black"/>
<path d="M49.8523 35.598C53.3405 34.4768 57.2363 34.7327 60.5412 36.3373C63.8094 37.9257 66.3441 40.7692 67.5748 44.1815C68.2757 46.1273 68.565 48.1625 68.4061 50.2221C68.3653 50.7705 68.9032 51.2376 69.4249 51.2376C70.0117 51.2376 70.4029 50.7705 70.4436 50.2221C70.7574 46.1273 69.3923 42.0326 66.8535 38.8275C64.2495 35.5452 60.3741 33.5344 56.2379 33.0063C53.9233 32.7097 51.5394 32.925 49.3144 33.6359C48.0674 34.0381 48.5971 36.0001 49.8523 35.598Z" fill="black"/>
<path d="M49.5751 22.4606C54.4326 25.6089 58.3161 30.0976 60.7856 35.3176C61.022 35.8132 61.7351 35.9432 62.1793 35.6832C62.6887 35.3867 62.7783 34.7936 62.5461 34.2939C59.9299 28.7652 55.7448 24.0368 50.6061 20.7098C49.4977 19.9948 48.4748 21.7497 49.5751 22.4606Z" fill="black"/>
<path d="M62.4358 34.7774C62.0569 31.4667 62.8841 28.1722 64.8035 25.4424C65.1213 24.9914 64.885 24.3131 64.4367 24.0531C63.9273 23.7565 63.3609 23.9678 63.043 24.4187C60.9444 27.4004 59.9786 31.162 60.3942 34.7815C60.4553 35.3258 60.818 35.797 61.413 35.797C61.9224 35.793 62.501 35.3258 62.4358 34.7774Z" fill="black"/>
<path d="M121.773 57.9038C116.377 53.0169 116.821 45.2539 117.502 38.6447C117.95 34.3184 118.451 29.9839 117.636 25.6658C116.797 21.2014 114.372 17.2691 111.907 13.5278C109.254 9.50613 106.393 5.46826 105.22 0.723547C104.906 -0.543876 102.942 -0.00765786 103.256 1.26383C104.315 5.54544 106.683 9.31114 109.091 12.955C111.548 16.6719 114.222 20.4539 115.363 24.8208C116.491 29.1431 115.998 33.6359 115.53 38.011C115.159 41.5045 114.845 45.0468 115.248 48.5525C115.721 52.6391 117.221 56.5226 120.326 59.3378C121.3 60.2193 122.743 58.7853 121.773 57.9038Z" fill="black"/>
<path d="M104.352 199.831C108.17 197.324 111.104 193.737 113.081 189.647C115.204 185.259 116.145 180.503 116.94 175.729C118.651 165.48 119.205 155.032 121.618 144.901C122.213 142.399 122.926 139.925 123.79 137.5C124.658 135.07 125.636 132.576 126.944 130.346C127.543 129.322 128.448 128.412 129.161 127.458C129.878 126.491 130.571 125.5 131.231 124.492C132.572 122.445 133.79 120.32 134.878 118.127C139.238 109.344 141.516 99.554 141.3 89.7437C141.243 87.2089 141.048 84.6578 140.62 82.1554C140.168 79.5028 139.401 76.8664 139.41 74.1568C139.41 73.5841 139.442 73.0113 139.536 72.4466C139.63 71.8779 139.797 70.9233 140.074 70.5333C140.261 70.2693 140.84 69.8427 141.146 69.5299C141.557 69.1115 141.952 68.6769 142.327 68.23C143.847 66.4223 145.127 64.3668 145.734 62.0716C146.036 60.9302 146.158 59.7399 146.097 58.5578C146.072 58.0744 145.791 57.7413 145.347 57.5788C141.044 56.0067 136.72 58.0947 132.649 59.3824C131.402 59.7765 131.936 61.7385 133.191 61.3404C136.887 60.1705 140.893 58.1069 144.805 59.5368C144.556 59.2118 144.308 58.8828 144.055 58.5578C144.182 60.8977 143.432 63.071 142.181 65.0249C141.569 65.9836 140.856 66.8651 140.078 67.6979C139.711 68.0919 139.328 68.4738 138.933 68.8434C138.411 69.335 138.163 69.7534 137.93 70.4399C137.087 72.9544 137.339 75.6436 137.788 78.2069C138.24 80.7946 138.819 83.3294 139.047 85.9496C139.89 95.5324 138.297 105.298 134.483 114.138C132.576 118.557 130.143 122.754 127.258 126.613C126.536 127.575 125.624 128.477 125.065 129.538C124.462 130.683 123.9 131.849 123.382 133.035C122.376 135.334 121.512 137.695 120.791 140.099C117.836 149.922 117.115 160.212 115.709 170.318C114.446 179.418 113.068 189.472 105.925 196.041C105.11 196.788 104.242 197.458 103.317 198.068C102.233 198.791 103.251 200.55 104.352 199.831Z" fill="black"/>
<path d="M121.451 74.364C125.429 70.3668 129.129 66.0892 132.919 61.9213C136.558 57.92 140.339 54.004 143.669 49.7346C146.623 45.9445 149.105 41.8619 150.531 37.2513C151.807 33.124 152.308 28.6921 151.811 24.3902C151.248 19.5114 149.447 14.8845 146.265 11.1066C145.922 10.7004 145.168 10.7248 144.822 11.1066C138.934 17.659 133.493 24.6746 129.149 32.3522C124.712 40.1924 121.427 48.7515 120.111 57.6803C119.361 62.7703 119.218 67.9294 119.866 73.0357C119.936 73.58 120.286 74.0512 120.885 74.0512C121.382 74.0512 121.973 73.5841 121.904 73.0357C120.779 64.1556 122.022 55.1618 124.879 46.7123C127.662 38.4821 131.994 30.8492 137.079 23.8215C139.924 19.8933 143.025 16.1519 146.265 12.5406C145.784 12.5406 145.303 12.5406 144.822 12.5406C150.177 18.8899 150.996 27.9 148.864 35.6792C146.26 45.193 138.946 52.2654 132.491 59.3581C130.413 61.641 128.334 63.924 126.26 66.2111C124.202 68.4737 122.165 70.7527 120.009 72.9219C119.088 73.8562 120.526 75.2902 121.451 74.364Z" fill="black"/>
<path d="M130.045 83.6788C128.301 85.2671 126.871 87.2251 125.929 89.3903C124.956 91.6245 124.621 94.0294 123.835 96.3164C122.372 100.57 118.325 102.861 114.104 103.702C111.157 104.287 108.125 104.23 105.138 104.197C103.826 104.181 103.826 106.212 105.138 106.228C110.277 106.289 115.713 106.273 120.269 103.568C122.184 102.43 123.884 100.842 124.943 98.8675C126.166 96.5927 126.471 94.0131 127.262 91.588C128.077 89.0937 129.552 86.8757 131.492 85.1127C132.458 84.2353 131.011 82.8013 130.045 83.6788Z" fill="black"/>
<path d="M109.161 195.403C109.275 192.726 109.385 190.049 109.499 187.372C109.524 186.823 109.014 186.356 108.48 186.356C107.91 186.356 107.486 186.823 107.462 187.372C107.348 190.049 107.238 192.726 107.123 195.403C107.099 195.951 107.608 196.418 108.142 196.418C108.713 196.418 109.141 195.951 109.161 195.403Z" fill="black"/>
<path d="M105.346 188.302C105.346 191.081 105.346 193.863 105.346 196.642C105.346 197.95 107.384 197.95 107.384 196.642C107.384 193.863 107.384 191.081 107.384 188.302C107.384 186.994 105.346 186.99 105.346 188.302Z" fill="black"/>
<path d="M104.935 185.613C107.625 184.187 109.833 181.876 111.182 179.158C111.846 177.817 112.335 176.387 112.564 174.909C112.78 173.507 113.228 171.017 111.3 170.639C110.306 170.444 109.173 170.603 108.179 170.725C107.066 170.859 105.97 171.074 104.89 171.383C103.631 171.74 104.169 173.702 105.432 173.341C106.956 172.906 108.513 172.65 110.102 172.618C110.188 172.618 110.819 172.662 110.84 172.597C110.815 172.565 110.787 172.532 110.762 172.504C110.689 172.382 110.669 172.374 110.701 172.476C110.823 172.175 110.705 172.581 110.709 172.549C110.689 172.715 110.709 172.898 110.705 173.065C110.689 173.654 110.628 174.239 110.518 174.815C110.057 177.241 108.912 179.524 107.217 181.327C106.251 182.355 105.147 183.2 103.9 183.858C102.747 184.475 103.774 186.226 104.935 185.613Z" fill="black"/>
<path d="M147.292 42.2398C141.921 40.034 135.433 41.9473 131.969 46.5295C128.481 51.1442 128.391 57.2457 125.726 62.2464C124.239 65.0371 121.105 67.4989 121.419 70.9558C121.468 71.5002 121.851 71.9714 122.438 71.9714C122.951 71.9714 123.505 71.5042 123.456 70.9558C123.334 69.6397 123.905 68.5266 124.622 67.4623C125.396 66.3086 126.313 65.2524 127.038 64.0622C128.473 61.702 129.267 59.0169 130.03 56.3845C130.759 53.8578 131.452 51.2742 132.784 48.9872C134.068 46.7854 135.979 45.0427 138.388 44.1369C141.097 43.1172 144.068 43.0969 146.754 44.2018C147.263 44.409 147.874 43.9744 148.009 43.4909C148.164 42.906 147.801 42.451 147.292 42.2398Z" fill="black"/>
<path d="M150.669 33.6399C146.672 32.3563 142.254 32.7422 138.485 34.5499C134.744 36.3454 131.932 39.6399 130.498 43.495C129.703 45.6277 129.365 47.9513 129.54 50.2221C129.581 50.7705 129.98 51.2376 130.559 51.2376C131.076 51.2376 131.618 50.7705 131.578 50.2221C131.305 46.6513 132.393 43.0237 134.622 40.2045C136.891 37.3325 140.274 35.4761 143.909 35.0211C146.003 34.7571 148.122 34.9561 150.131 35.598C151.378 36.0001 151.916 34.038 150.669 33.6399Z" fill="black"/>
<path d="M149.377 20.7058C144.239 24.0328 140.054 28.7612 137.437 34.29C137.201 34.7855 137.299 35.3868 137.804 35.6792C138.248 35.9392 138.962 35.8133 139.198 35.3136C141.667 30.0936 145.547 25.6049 150.408 22.4566C151.501 21.7498 150.482 19.9908 149.377 20.7058Z" fill="black"/>
<path d="M139.581 34.7774C139.997 31.1579 139.031 27.4003 136.933 24.4146C136.619 23.9677 136.04 23.7565 135.539 24.049C135.095 24.3089 134.854 24.9873 135.172 25.4382C137.091 28.1681 137.923 31.4626 137.54 34.7733C137.479 35.3176 138.053 35.7889 138.559 35.7889C139.166 35.7929 139.516 35.3258 139.581 34.7774Z" fill="black"/>
<path d="M99.0994 188.302C99.0994 191.597 99.0994 194.891 99.0994 198.185C99.0994 199.494 101.137 199.494 101.137 198.185C101.137 194.891 101.137 191.597 101.137 188.302C101.137 186.994 99.0994 186.99 99.0994 188.302Z" fill="black"/>
</g>
<defs>
<clipPath id="clip0_501_30257">
<rect width="200" height="200" fill="white"/>
</clipPath>
</defs>
</svg>

<svg xmlns="http://www.w3.org/2000/svg" width="200" height="200" fill="none"><g fill="#000" clip-path="url(#a)"><path d="M79.65 59.342c5.639-5.11 5.619-13.068 4.93-20.06-.42-4.24-1.064-8.555-.322-12.796.782-4.476 3.211-8.344 5.677-12.08 2.718-4.12 5.587-8.28 6.789-13.134.313-1.267-1.65-1.812-1.965-.54-2.139 8.648-9.662 14.721-12.033 23.28-2.176 7.86.737 15.876.037 23.83-.335 3.81-1.667 7.45-4.556 10.066-.97.877.472 2.311 1.442 1.434M96.655 198.076c-3.716-2.442-6.439-6.029-8.272-10.038-2.01-4.387-2.812-9.242-3.562-13.97-1.606-10.087-2.192-20.356-4.641-30.3-1.219-4.96-2.93-9.815-5.33-14.336-.555-1.048-1.496-1.954-2.205-2.909a58 58 0 0 1-2.075-2.965 62 62 0 0 1-3.553-6.15c-4.336-8.616-6.549-18.264-6.292-27.904.065-2.494.265-4.997.717-7.454.481-2.608 1.174-5.224 1.17-7.893-.004-1.247-.167-2.527-.567-3.713-.216-.642-.432-1.068-.925-1.528a26 26 0 0 1-1.295-1.295c-1.512-1.63-2.837-3.522-3.493-5.663a9.7 9.7 0 0 1-.412-3.4q-.371.49-.75.979c3.913-1.43 7.919.633 11.615 1.803 1.25.398 1.789-1.564.542-1.958-4.071-1.287-8.395-3.375-12.698-1.803-.448.162-.721.5-.75.979-.13 2.405.562 4.749 1.748 6.824.579 1.012 1.272 1.954 2.021 2.848q.57.672 1.182 1.3c.285.292.958.817 1.068.97.322.436.424 1.305.521 1.825.119.646.151 1.304.147 1.958-.008 1.312-.2 2.608-.44 3.895-.489 2.629-1.023 5.22-1.251 7.893-.844 9.799.864 19.735 4.715 28.773a62 62 0 0 0 7.294 12.703c.71.951 1.647 1.865 2.205 2.909a50 50 0 0 1 1.691 3.497c1.04 2.36 1.89 4.806 2.608 7.28 2.901 9.973 3.582 20.396 5.05 30.629 1.336 9.307 3.055 19.34 10.484 25.905a24 24 0 0 0 2.702 2.056c1.1.727 2.123-1.032 1.031-1.747"/><path d="M79.971 72.926c-3.86-3.875-7.45-8.027-11.129-12.073-3.55-3.9-7.221-7.726-10.522-11.842-2.869-3.578-5.346-7.486-6.769-11.865-1.287-3.961-1.805-8.157-1.393-12.309.44-4.456 2.09-8.847 5-12.292h-1.443c5.779 6.43 11.093 13.304 15.355 20.835 4.344 7.67 7.519 16.017 8.823 24.751.737 4.928.815 9.965.187 14.909-.07.544.518 1.015 1.019 1.015.607 0 .95-.467 1.019-1.015 1.145-9.035-.139-18.268-3.044-26.864-2.849-8.425-7.246-16.257-12.458-23.447-2.934-4.042-6.117-7.901-9.454-11.618-.346-.386-1.1-.402-1.443 0-5.737 6.8-6.862 16.253-4.686 24.674 1.174 4.537 3.354 8.669 6.125 12.434 3.17 4.306 6.887 8.186 10.481 12.138 2.168 2.385 4.336 4.765 6.504 7.15 2.103 2.311 4.18 4.643 6.385 6.857.925.926 2.368-.508 1.443-1.438M68.496 85.117c1.72 1.564 3.11 3.497 3.945 5.67.904 2.353 1.186 4.888 2.188 7.211 1.883 4.363 6.394 6.849 10.897 7.698 3.073.581 6.206.565 9.32.528 1.312-.016 1.312-2.047 0-2.031-4.846.057-10.03.126-14.3-2.502-1.801-1.109-3.305-2.677-4.124-4.64-.917-2.189-1.165-4.59-2.017-6.804a17.2 17.2 0 0 0-4.47-6.568c-.966-.878-2.413.556-1.439 1.438M92.856 195.403c-.114-2.677-.224-5.354-.338-8.031-.025-.549-.453-1.016-1.019-1.016-.534 0-1.043.463-1.019 1.016.114 2.677.224 5.354.339 8.031.024.548.452 1.015 1.018 1.015.534 0 1.044-.467 1.02-1.015"/><path d="M92.596 188.302v8.34c0 1.308 2.037 1.308 2.037 0v-8.34c0-1.308-2.037-1.312-2.037 0M96.076 183.862c-2.18-1.154-3.953-2.917-5.163-5.057a13 13 0 0 1-1.345-3.47 11.4 11.4 0 0 1-.302-2.644c0-.008 0-.289.025-.276-.017-.009-.143.203-.147.195.012.024.09.012.085.008.115.069.506 0 .648.004q.337.008.673.028c.436.025.872.061 1.304.122.909.122 1.81.325 2.694.577 1.263.361 1.8-1.601.541-1.958a20.3 20.3 0 0 0-5.692-.8c-.917.004-1.79.325-2.07 1.287-.212.723-.094 1.589-.009 2.324a15.2 15.2 0 0 0 3.692 8.238 14.3 14.3 0 0 0 4.035 3.185c1.157.601 2.188-1.15 1.03-1.763M53.231 44.198c4.74-1.946 10.51-.35 13.415 3.904 3.073 4.497 3.289 10.257 5.783 15.038.713 1.369 1.67 2.551 2.567 3.798.864 1.203 1.67 2.482 1.532 4.018-.049.548.505 1.015 1.019 1.015.59 0 .97-.467 1.019-1.015.285-3.128-2.27-5.358-3.782-7.792-1.492-2.4-2.237-5.15-3.012-7.84-.786-2.725-1.605-5.529-3.158-7.937a13.1 13.1 0 0 0-6.61-5.265c-2.966-1.072-6.381-1.089-9.311.118-.51.207-.872.674-.713 1.25.13.476.742.919 1.251.708"/><path d="M49.852 35.598c3.489-1.121 7.384-.865 10.69.74a14.04 14.04 0 0 1 7.033 7.843c.7 1.946.99 3.982.831 6.041-.04.548.497 1.016 1.019 1.016.587 0 .978-.468 1.019-1.016.313-4.095-1.052-8.19-3.59-11.394-2.605-3.283-6.48-5.294-10.616-5.822a16.1 16.1 0 0 0-6.924.63c-1.247.402-.717 2.364.538 1.962"/><path d="M49.575 22.46c4.858 3.149 8.741 7.638 11.21 12.858.237.495.95.625 1.394.365.51-.296.6-.89.367-1.39-2.616-5.528-6.801-10.256-11.94-13.583-1.108-.715-2.131 1.04-1.03 1.75"/><path d="M62.436 34.777a13.5 13.5 0 0 1 2.367-9.335c.318-.45.082-1.129-.366-1.389-.51-.297-1.076-.085-1.394.366-2.099 2.981-3.064 6.743-2.649 10.363.061.544.424 1.015 1.019 1.015.51-.004 1.088-.471 1.023-1.02M121.773 57.904c-5.396-4.887-4.952-12.65-4.271-19.26.448-4.326.949-8.66.134-12.978-.839-4.465-3.264-8.397-5.729-12.138-2.653-4.022-5.514-8.06-6.687-12.804-.314-1.268-2.278-.732-1.964.54 1.059 4.281 3.427 8.047 5.835 11.691 2.457 3.717 5.131 7.499 6.272 11.866 1.128 4.322.635 8.815.167 13.19-.371 3.493-.685 7.036-.282 10.542.473 4.086 1.973 7.97 5.078 10.785.974.881 2.417-.553 1.447-1.434M104.352 199.831c3.818-2.507 6.752-6.094 8.729-10.184 2.123-4.388 3.064-9.144 3.859-13.918 1.711-10.249 2.265-20.697 4.678-30.828a71 71 0 0 1 2.172-7.401c.868-2.43 1.846-4.924 3.154-7.154.599-1.024 1.504-1.934 2.217-2.888a61.464 61.464 0 0 0 5.717-9.331c4.36-8.783 6.638-18.573 6.422-28.383-.057-2.535-.252-5.086-.68-7.589-.452-2.652-1.219-5.289-1.21-7.998 0-.573.032-1.146.126-1.71.094-.57.261-1.524.538-1.914.187-.264.766-.69 1.072-1.003q.618-.628 1.181-1.3c1.52-1.808 2.8-3.863 3.407-6.158.302-1.142.424-2.332.363-3.514-.025-.484-.306-.817-.75-.98-4.303-1.571-8.627.517-12.698 1.804-1.247.395-.713 2.357.542 1.958 3.696-1.17 7.702-3.233 11.614-1.803q-.372-.49-.75-.98c.127 2.34-.623 4.514-1.874 6.468a18.6 18.6 0 0 1-2.103 2.673q-.551.591-1.145 1.145c-.522.492-.77.91-1.003 1.597-.843 2.514-.591 5.204-.142 7.767.452 2.588 1.031 5.122 1.259 7.743.843 9.582-.75 19.348-4.564 28.188a61.7 61.7 0 0 1-7.225 12.475c-.722.962-1.634 1.864-2.193 2.925a53 53 0 0 0-1.683 3.497 62 62 0 0 0-2.591 7.064c-2.955 9.823-3.676 20.113-5.082 30.219-1.263 9.1-2.641 19.154-9.784 25.723a21 21 0 0 1-2.608 2.027c-1.084.723-.066 2.482 1.035 1.763"/><path d="M121.451 74.364c3.978-3.997 7.678-8.275 11.468-12.443 3.639-4.001 7.42-7.917 10.75-12.186 2.954-3.79 5.436-7.873 6.862-12.484 1.276-4.127 1.777-8.559 1.28-12.86-.563-4.88-2.364-9.506-5.546-13.284-.343-.407-1.097-.382-1.443 0-5.888 6.552-11.329 13.568-15.673 21.245-4.437 7.84-7.722 16.4-9.038 25.328-.75 5.09-.893 10.25-.245 15.356.07.544.42 1.015 1.019 1.015.497 0 1.088-.467 1.019-1.015-1.125-8.88.118-17.874 2.975-26.324 2.783-8.23 7.115-15.863 12.2-22.89 2.845-3.929 5.946-7.67 9.186-11.281h-1.443c5.355 6.349 6.174 15.359 4.042 23.138-2.604 9.514-9.918 16.586-16.373 23.68q-3.119 3.422-6.231 6.852c-2.058 2.263-4.095 4.542-6.251 6.71-.921.935.517 2.37 1.442 1.443M130.045 83.679c-1.744 1.588-3.174 3.546-4.116 5.711-.973 2.234-1.308 4.64-2.094 6.926-1.463 4.254-5.51 6.545-9.731 7.386-2.947.585-5.979.528-8.966.495-1.312-.016-1.312 2.015 0 2.031 5.139.061 10.575.045 15.131-2.66 1.915-1.138 3.615-2.726 4.674-4.7 1.223-2.275 1.528-4.855 2.319-7.28.815-2.494 2.29-4.712 4.23-6.475.966-.878-.481-2.312-1.447-1.434M109.161 195.403c.114-2.677.224-5.354.338-8.031.025-.549-.485-1.016-1.019-1.016-.57 0-.994.467-1.018 1.016-.114 2.677-.224 5.354-.339 8.031-.024.548.485 1.015 1.019 1.015.571 0 .999-.467 1.019-1.015"/><path d="M105.346 188.302v8.34c0 1.308 2.038 1.308 2.038 0v-8.34c0-1.308-2.038-1.312-2.038 0M104.935 185.613c2.69-1.426 4.898-3.737 6.247-6.455.664-1.341 1.153-2.771 1.382-4.249.216-1.402.664-3.892-1.264-4.27-.994-.195-2.127-.036-3.121.086a21 21 0 0 0-3.289.658c-1.259.357-.721 2.319.542 1.958a18.3 18.3 0 0 1 4.67-.723c.086 0 .717.044.738-.021l-.078-.093q-.11-.182-.061-.028c.122-.301.004.105.008.073-.02.166 0 .349-.004.516a11 11 0 0 1-.187 1.75 13.1 13.1 0 0 1-3.301 6.512 12.6 12.6 0 0 1-3.317 2.531c-1.153.617-.126 2.368 1.035 1.755M147.292 42.24c-5.371-2.206-11.859-.293-15.323 4.29-3.488 4.614-3.578 10.716-6.243 15.716-1.487 2.791-4.621 5.253-4.307 8.71.049.544.432 1.015 1.019 1.015.513 0 1.067-.467 1.018-1.015-.122-1.316.449-2.43 1.166-3.494.774-1.153 1.691-2.21 2.416-3.4 1.435-2.36 2.229-5.045 2.992-7.677.729-2.527 1.422-5.11 2.754-7.398 1.284-2.202 3.195-3.944 5.604-4.85 2.709-1.02 5.68-1.04 8.366.065.509.207 1.12-.228 1.255-.711.155-.585-.208-1.04-.717-1.251"/><path d="M150.669 33.64c-3.997-1.284-8.415-.898-12.184.91-3.741 1.795-6.553 5.09-7.987 8.945a15.9 15.9 0 0 0-.958 6.727c.041.548.44 1.016 1.019 1.016.517 0 1.059-.468 1.019-1.016-.273-3.57.815-7.198 3.044-10.017 2.269-2.872 5.652-4.729 9.287-5.184a14.5 14.5 0 0 1 6.222.577c1.247.402 1.785-1.56.538-1.958"/><path d="M149.377 20.706c-5.138 3.327-9.323 8.055-11.94 13.584-.236.495-.138 1.097.367 1.39.444.26 1.158.133 1.394-.366 2.469-5.22 6.349-9.71 11.21-12.857 1.093-.707.074-2.466-1.031-1.751"/><path d="M139.581 34.777c.416-3.62-.55-7.377-2.648-10.362-.314-.447-.893-.659-1.394-.366-.444.26-.685.938-.367 1.39a13.47 13.47 0 0 1 2.368 9.334c-.061.545.513 1.016 1.019 1.016.607.004.957-.463 1.022-1.012M99.1 188.302v9.883c0 1.309 2.037 1.309 2.037 0v-9.883c0-1.308-2.038-1.312-2.038 0"/></g><defs><clipPath id="a"><path fill="#fff" d="M0 0h200v200H0z"/></clipPath></defs></svg>
